src/images/icons/social-media/cell-blue.svg

<svg xmlns="http://www.w3.org/2000/svg" width="404.694" height="404.694" viewBox="0 0 404.694 404.694">
  <path id="cell-blue" d="M21.319,202.347A181.028,181.028,0,1,1,202.347,383.375,181.028,181.028,0,0,1,21.319,202.347ZM202.347,0C90.594,0,0,90.594,0,202.347S90.594,404.694,202.347,404.694,404.694,314.1,404.694,202.347,314.1,0,202.347,0ZM156.8,170.449a59.49,59.49,0,0,0-4.9,5.192c4.154,26.113,32.047,51.631,45.7,62.314.264.215.548.449.851.7,7.2,5.907,25.028,20.547,33.57,17.7,2.83-.943,6.222-4.6,10.028-8.711,5.771-6.229,12.492-13.483,19.645-13.841,7.122,0,29.673,17.211,33.234,20.772,9.232,10.861-2.408,23.214-9.454,30.69-.654.694-1.268,1.345-1.822,1.95-20.771,20.771-45.7,11.869-75.963-2.967-43.916-21.958-83.678-61.72-99.108-115.725-11.275-39.762,23.145-65.874,36.2-62.907,8.225,2.057,13.779,17.919,17.817,29.454.624,1.781,1.211,3.459,1.767,4.967C170.5,157.02,163.5,163.877,156.8,170.449Z" fill="#54b329" fill-rule="evenodd"/>
</svg>

<svg width="405" height="405" viewBox="0 0 405 405" fill="none" xmlns="http://www.w3.org/2000/svg">
<path fill-rule="evenodd" clip-rule="evenodd" d="M21.3192 202.347C21.3192 102.368 102.368 21.3192 202.347 21.3192C302.326 21.3192 383.375 102.368 383.375 202.347C383.375 302.326 302.326 383.375 202.347 383.375C102.368 383.375 21.3192 302.326 21.3192 202.347ZM202.347 0C90.5939 0 0 90.5939 0 202.347C0 314.1 90.5939 404.694 202.347 404.694C314.1 404.694 404.694 314.1 404.694 202.347C404.694 90.5939 314.1 0 202.347 0ZM156.799 170.449C155.071 172.142 153.362 173.817 151.903 175.641C156.057 201.754 183.95 227.272 197.599 237.955C197.863 238.17 198.147 238.404 198.45 238.652C205.645 244.559 223.478 259.199 232.02 256.352C234.85 255.409 238.242 251.748 242.048 247.641C247.819 241.412 254.54 234.158 261.693 233.8C268.815 233.8 291.366 251.011 294.927 254.572C304.159 265.433 292.519 277.786 285.473 285.262C284.819 285.956 284.205 286.607 283.651 287.212C262.88 307.983 237.955 299.081 207.688 284.245C163.772 262.287 124.01 222.525 108.58 168.52C97.3047 128.758 131.725 102.646 144.782 105.613C153.007 107.67 158.561 123.532 162.599 135.067C163.223 136.848 163.81 138.526 164.366 140.034C170.5 157.02 163.503 163.877 156.799 170.449Z" fill="#0296D2"/>
</svg>
